X:40
T: DIE WELT IST NICHTS ALS EIN ORCHESTER
N: F0122
O: Europa, Mitteleuropa, Deutschland
R: Scherz -, Moral - Lied, gesellschafts - kritisch
M: 3/4
L: 1/16
K: Bb
F2G2A2 | B6B2c2c2 | d4B4c2c2 | d4B4
d4 | c3dc2B2A2G2 | F4z4
d4 | c3dc2B2A2G2 | F4z2
F2G2A2 | B6B2c2c2 | d4B4c2c2 | d4B4
d4 | c3dc2B2A2G2 | F4z4
d4 | c3dc2B2A2G2 | F4z2
F2F3F | B6F2G2_A2 | G4E4z2
B2 | A3FB2F2B2d2 | c6
F2G2A2 | B6B2B2B2 | B3GG4z2
G2 | F3FF2G2F2E2 | D4z6
B2 | B3BB2B2d2B2 | B3GG4z2
G2 | F3FF2F2G2A2 | B6dcB2
AG | G3FF2F2G2A2 | B4z2

@@@ Tune index: 5471
